assets/img/braze_icons/drop.svg

<svg fill="none" height="24" viewBox="0 0 24 24" width="24" xmlns="http://www.w3.org/2000/svg"><path d="m11.2943 1.29131c-.3372.33043-.67.66532-1.0006 1.00241-.60895.62106-1.43457 1.48112-2.29902 2.43537-.86289.95253-1.77313 2.00841-2.5474 3.01984-.76002.99282-1.4426 2.01085-1.7927 2.87577-.42245 1.0436-.65458 2.1835-.65458 3.3752 0 4.9706 4.02944 9 9 9 4.9706 0 9-4.0294 9-9 0-1.1917-.2321-2.3316-.6546-3.3752-.3501-.86492-1.0327-1.88295-1.7927-2.87577-.7742-1.01143-1.6845-2.06731-2.5474-3.01984-.8644-.95425-1.69-1.81431-2.299-2.43537-.3306-.33709-.6634-.67198-1.0006-1.00241-.0893-.08897-.1962-.16181-.3169-.21273-.1255-.05296-.2577-.078664-.3888-.07858-.1311-.000084-.2633.02562-.3888.07858-.1207.05092-.2276.12376-.3169.21273z" fill="#801ed7"/></svg>

<svg width="24" height="24" viewBox="0 0 24 24" fill="none" xmlns="http://www.w3.org/2000/svg">
<path d="M11.2943 1.29131C10.9571 1.62174 10.6243 1.95663 10.2937 2.29372C9.68475 2.91478 8.85913 3.77484 7.99468 4.72909C7.13179 5.68162 6.22155 6.7375 5.44728 7.74893C4.68726 8.74175 4.00468 9.75978 3.65458 10.6247C3.23213 11.6683 3 12.8082 3 13.9999C3 18.9705 7.02944 22.9999 12 22.9999C16.9706 22.9999 21 18.9705 21 13.9999C21 12.8082 20.7679 11.6683 20.3454 10.6247C19.9953 9.75978 19.3127 8.74175 18.5527 7.74893C17.7785 6.7375 16.8682 5.68162 16.0053 4.72909C15.1409 3.77484 14.3153 2.91478 13.7063 2.29372C13.3757 1.95663 13.0429 1.62174 12.7057 1.29131C12.6164 1.20234 12.5095 1.1295 12.3888 1.07858C12.2633 1.02562 12.1311 0.999916 12 1C11.8689 0.999916 11.7367 1.02562 11.6112 1.07858C11.4905 1.1295 11.3836 1.20234 11.2943 1.29131Z" fill="#801ED7"/>
</svg>
